X:266
T:Miss Catriona Henderson 
C:Joe Buchanan's Scottish Tome - Page 311.0
I:311 0
C:Lindsay Ross
R:Jig
Z:Carl Allison
L:1/8
M:6/8
K:A
cd |"A" efe e<ce |"A" fec e3 |"A" ece fec |"E7" d3 dBc |
"E7"ded d<Bd |"E7" edB d3 |"E7" dBd fed |"A" c3 c2 d |
"A"efe e<ce |"A" fec e3 |"A" ece eag |"D" f3 f2 a |
"E7"gbg ege |"E7" dfd B2 a |"E7" gfe dcB |"A" A3 A |]
cd | "E7"efe BGB |"E7" efe fec |"E7" d3 dBc |
"E7"ded BGB |"E7" ded B2 c |"E7" dcd fed |"A" c3 c2 d |
"A"efe cAc |"A" efe c2 B |"A" Ace ae^e |"D" f3 f2 a |
"E7"gbg ege |"E7"dfd "Bm"B2 a |"E7" gfe dcB |"A" A3 A |]

